X:2793
T:Ceilidh Trail School
R:reel
C:Jerry Holland
O:20th Century Cape Breton
S:Tune of the Month, April 1999
N:published by Fiddlesticks Music
N:Contacts ...
N:Bookings,Mechanicals etc.
N:..... Jerry Holland <jerry@cranfordpub.com>
N:Tune books, related recordings
N:..... Cranford Publications <http://www.cranfordpub.com>
N:Ceilidh Trail School is a Cape Breton based summer school dedicated to
traditional music
N:...........information at <http://www.ceilidhtrail.com>
N:This summer Jerry is teaching at the Gaelic College in St Anns
N:...........information at<http://www.gaeliccollege.edu/welcome.html>
B:Previously Unpublished.
H:Copyrights - Publisher:Fiddlesticks Music (SOCAN).
Z:This abc transcription is for personal use only
Z:provided this notice remains attached.
Z:Used by permission of the composer and publisher.
Z:Paul Stewart Cranford
L:1/8
Q:333
M:C|
K:D
|:B|AD F/E/D FAAB|dfaf edeg|fdec dBAF|BGAF EFGB|!
AD F/E/D FAAB|dfaf edeg|fdec dBAF|BGAF E2 D:|!
|:f|abaf defa|beef beef|abaf defd|efdB cAAf|!
abaf defa|beef beef|defd g2 fe|dBAF ADD:|!


